assets/azureabsmember/original.svg

<svg height="18" viewBox="0 0 18 18" width="18" xmlns="http://www.w3.org/2000/svg" xmlns:xlink="http://www.w3.org/1999/xlink"><linearGradient id="a" gradientUnits="userSpaceOnUse" x1="14.415" x2="11.867" y1="13.555" y2="9.096"><stop offset=".101" stop-color="#773adc"/><stop offset="1" stop-color="#403457"/></linearGradient><path d="m16.299 4.726v8.548l-7.299 4.226v-8.452z" fill="#773adc"/><path d="m13.074 9.1c1.057-.58 1.826-.1 1.826 1.053a4.19 4.19 0 0 1 -1.825 3.169c-1.056.576-1.825.1-1.825-1.056a3.93 3.93 0 0 1 1.824-3.166" fill="url(#a)"/><path d="m16.299 4.726-7.299 4.322-7.299-4.322 7.299-4.226z" fill="#b796f9"/><path d="m9 9.048v8.452l-7.299-4.226v-8.548z" fill="#a67af4"/></svg>

<svg xmlns="http://www.w3.org/2000/svg" width="18" height="18" viewBox="0 0 18 18"><defs><linearGradient id="ebaa666f-d34b-47c6-9dd8-955cce642dd9" x1="14.415" x2="11.867" y1="13.555" y2="9.096" gradientUnits="userSpaceOnUse"><stop offset=".101" stop-color="#773adc"/><stop offset="1" stop-color="#403457"/></linearGradient></defs><title>Icon-494-ABS-Member</title><g id="fedf7af2-b5cf-45c6-91f6-8fba9e1b615a"><path fill="#773adc" d="M16.299 4.726v8.548L9 17.5V9.048z"/><path fill="url(#ebaa666f-d34b-47c6-9dd8-955cce642dd9)" d="M13.074 9.1c1.057-.58 1.826-.1 1.826 1.053a4.19 4.19 0 0 1-1.825 3.169c-1.056.576-1.825.1-1.825-1.056A3.93 3.93 0 0 1 13.074 9.1"/><path fill="#b796f9" d="M16.299 4.726 9 9.048 1.701 4.726 9 .5z"/><path fill="#a67af4" d="M9 9.048V17.5l-7.299-4.226V4.726z"/></g></svg>
